X:725
T: Fermanagh's Loveliest HP
C: BB
L: 1/8
Q: 1/8=320
M: 4/4
R: hornpipe
K: D
E | "D"FAdB AFEF | DFAd f2 ef | "G"gfeg "Bm"fedf | "Em"efed "A7"cBAG |
"D"FAdc "Bm"BAFB | "F#m"AFAc "D"d2 dc | "G"BGBd "A"cAce | "D"df "A"ec "D"d3 :|
B/c/ | "Bm"dBAB fBAB | "A7"agfe cdec | "Bm"dBAB fBAB | "D"FAdc "G"B2 Bc |
"Bm"dBAB fBAB | "A7"agfe "D"dcBA | "G"BGBd "A"cAce |"D"df "A"ec "D"d3 :|

%%%%%%%%%%%%%%%%%%%%%%%%%%%%%%%%%%%%%%%%%%%

